public/blog-logo.svg

<svg width="48" height="48" viewBox="0 0 48 48" fill="none" xmlns="http://www.w3.org/2000/svg">
<path fill-rule="evenodd" clip-rule="evenodd" d="M43.7454 24.0566C43.43 22.7656 42.8309 21.561 41.9918 20.5305C41.1526 19.5 40.0943 18.6694 38.894 18.099C37.89 17.6499 36.7986 17.4302 35.6991 17.456C35.6622 17.458 35.6254 17.4498 35.5929 17.4323C35.5603 17.4148 35.5332 17.3887 35.5146 17.3567C35.496 17.3248 35.4865 17.2883 35.4873 17.2514C35.4881 17.2144 35.4991 17.1784 35.519 17.1473C36.0886 16.2082 36.4402 15.1534 36.548 14.0605C36.6571 12.7323 36.4685 11.3965 35.9959 10.1505C35.5233 8.90446 34.7786 7.77959 33.8161 6.85788C32.8726 5.92175 31.7164 5.22803 30.4464 4.83602C28.2341 4.17236 26.4901 4.51191 25.5435 5.78779C25.0177 6.5438 24.7293 7.4394 24.7152 8.36014C24.6196 9.33318 24.8592 10.3097 25.3943 11.128C25.6596 11.493 25.9978 11.7989 26.3874 12.0265C26.7771 12.2541 27.2097 12.3983 27.6579 12.4502C28.1016 12.4963 28.55 12.4492 28.9744 12.3119C29.3988 12.1746 29.7897 11.9501 30.1222 11.6527C30.438 11.368 30.6922 11.0216 30.8691 10.635C31.0461 10.2483 31.1421 9.82962 31.1512 9.40451C31.159 9.18793 31.0876 8.97591 30.9502 8.80826C30.8129 8.64061 30.6191 8.52883 30.4052 8.49389C30.2858 8.47931 30.1647 8.49028 30.0499 8.52603C29.9351 8.56179 29.8292 8.62152 29.7392 8.70129C29.6492 8.78107 29.5772 8.87905 29.5279 8.98875C29.4787 9.09845 29.4533 9.21737 29.4534 9.33763C29.45 9.53304 29.4056 9.72556 29.3232 9.90278C29.2408 10.08 29.1222 10.238 28.975 10.3666C28.8214 10.5055 28.6404 10.6107 28.4437 10.6754C28.247 10.7401 28.0389 10.7628 27.8329 10.7421C27.6221 10.7172 27.4187 10.649 27.2355 10.5419C27.0522 10.4348 26.8931 10.291 26.7679 10.1196C26.4586 9.61272 26.3282 9.01677 26.3975 8.42702C26.4037 7.83806 26.5826 7.26385 26.912 6.77557C27.5756 5.88553 29.1087 6.17878 29.9628 6.43601C30.9696 6.74961 31.8857 7.30209 32.6329 8.04631C33.4062 8.79056 34.0066 9.69566 34.3916 10.6976C34.7765 11.6995 34.9366 12.7738 34.8605 13.8444C34.7333 14.8355 34.3714 15.7819 33.805 16.6051C33.2386 17.4282 32.4841 18.1044 31.6039 18.5775L31.5628 18.6084L31.3415 18.737C31.233 18.8002 31.105 18.8215 30.9818 18.7969C30.8586 18.7722 30.7486 18.7034 30.6727 18.6032C29.8736 17.5953 28.8569 16.7809 27.6988 16.2212C26.5407 15.6614 25.271 15.3707 23.9846 15.3707C22.6983 15.3707 21.4286 15.6614 20.2705 16.2212C19.1123 16.7809 18.0957 17.5953 17.2965 18.6032C17.2208 18.702 17.1118 18.7701 16.9898 18.7946C16.8678 18.8192 16.7409 18.7988 16.6329 18.737L16.4116 18.6084L16.3705 18.5775C15.4909 18.1038 14.7367 17.4274 14.1704 16.6043C13.6041 15.7813 13.242 14.8352 13.1139 13.8444C13.0403 12.774 13.2015 11.7005 13.5863 10.6989C13.9711 9.69738 14.5702 8.79205 15.3415 8.04631C16.0906 7.30187 17.0083 6.74942 18.0168 6.43601C18.8708 6.17878 20.4039 5.88039 21.0676 6.77557C21.3978 7.26345 21.5768 7.83792 21.5821 8.42702C21.6505 9.01608 21.5221 9.61122 21.2168 10.1196C21.0916 10.291 20.9324 10.4348 20.7492 10.5419C20.566 10.649 20.3626 10.7172 20.1518 10.7421C19.9449 10.7642 19.7357 10.7422 19.5379 10.6774C19.3401 10.6127 19.1584 10.5067 19.0046 10.3666C18.8574 10.238 18.7388 10.08 18.6564 9.90278C18.574 9.72556 18.5296 9.53304 18.5261 9.33763C18.5263 9.21737 18.5009 9.09845 18.4516 8.98875C18.4023 8.87905 18.3303 8.78107 18.2403 8.70129C18.1504 8.62152 18.0444 8.56179 17.9296 8.52603C17.8148 8.49028 17.6937 8.47931 17.5743 8.49389C17.3605 8.52883 17.1667 8.64061 17.0293 8.80826C16.892 8.97591 16.8205 9.18793 16.8284 9.40451C16.8378 9.82956 16.9339 10.2482 17.1109 10.6348C17.2878 11.0214 17.5418 11.3678 17.8573 11.6527C18.1894 11.9506 18.5804 12.1755 19.0049 12.3128C19.4293 12.4502 19.8779 12.497 20.3216 12.4502C20.7707 12.4041 21.2053 12.2651 21.5976 12.0419C21.99 11.8187 22.3316 11.5162 22.6007 11.1537C23.138 10.3382 23.3795 9.36306 23.2849 8.39101C23.2668 7.47093 22.9788 6.57646 22.4567 5.81866C21.5049 4.54278 19.766 4.20322 17.5538 4.86689C16.2832 5.25777 15.1268 5.95164 14.184 6.88875C13.2206 7.8098 12.4753 8.93457 12.0027 10.1808C11.53 11.427 11.3419 12.7631 11.4521 14.0913C11.5596 15.1843 11.9112 16.2393 12.4811 17.1781C12.501 17.2093 12.512 17.2453 12.5128 17.2822C12.5136 17.3192 12.5042 17.3557 12.4855 17.3876C12.4669 17.4195 12.4398 17.4457 12.4073 17.4632C12.3747 17.4807 12.3379 17.4889 12.301 17.4868C11.2032 17.4616 10.1136 17.6813 9.11131 18.1299C7.91082 18.7009 6.8523 19.5316 6.01235 20.562C5.17239 21.5923 4.57203 22.7966 4.25472 24.0875C3.91714 25.3733 3.89419 26.7215 4.18784 28.018C4.70231 30.2662 5.88559 31.6193 7.46501 31.7839C7.60372 31.7942 7.74302 31.7942 7.88174 31.7839C8.66279 31.7648 9.42809 31.5602 10.1145 31.1871C11.007 30.7871 11.734 30.091 12.1724 29.2167C12.3543 28.8042 12.4482 28.3583 12.4482 27.9074C12.4482 27.4566 12.3543 27.0106 12.1724 26.5981C11.9916 26.1895 11.7269 25.8235 11.3954 25.5239C11.0639 25.2243 10.673 24.9978 10.2483 24.8592C9.84397 24.7271 9.41705 24.6787 8.99342 24.7167C8.56979 24.7547 8.15832 24.8785 7.78399 25.0804C7.5912 25.1818 7.4423 25.3504 7.3655 25.5543C7.2887 25.7581 7.28933 25.9831 7.36727 26.1865C7.41449 26.2967 7.48451 26.3956 7.57273 26.4768C7.66094 26.558 7.76536 26.6196 7.87909 26.6575C7.99282 26.6954 8.11328 26.7088 8.23256 26.6968C8.35185 26.6848 8.46724 26.6476 8.57113 26.5878C8.74323 26.4882 8.93463 26.4266 9.13251 26.4071C9.33039 26.3875 9.53014 26.4106 9.71838 26.4746C9.91588 26.539 10.0976 26.6441 10.2519 26.7833C10.4061 26.9224 10.5293 27.0925 10.6136 27.2823C10.6978 27.4763 10.7413 27.6856 10.7413 27.8971C10.7413 28.1086 10.6978 28.3179 10.6136 28.5119C10.3296 29.0326 9.87827 29.4423 9.33253 29.6746C8.82562 29.9717 8.24185 30.1114 7.65537 30.0759C6.54926 29.9473 6.03993 28.4707 5.83415 27.6013C5.603 26.5723 5.62418 25.5027 5.89588 24.4836C6.15301 23.4407 6.63663 22.4672 7.31238 21.6323C7.98814 20.7974 8.83945 20.1216 9.80585 19.6527C10.7269 19.2687 11.7262 19.1095 12.721 19.1883C13.7158 19.267 14.6775 19.5814 15.5268 20.1055L15.7943 20.2598C15.9022 20.3226 15.9836 20.4224 16.0233 20.5407C16.0631 20.659 16.0585 20.7877 16.0104 20.9029C15.5295 22.1344 15.3407 23.4605 15.4585 24.7773C15.5764 26.094 15.9978 27.3655 16.6896 28.492C17.3815 29.6186 18.325 30.5694 19.4461 31.27C20.5672 31.9706 21.8354 32.4018 23.1512 32.5299V33.1267C23.1461 33.178 23.1461 33.2297 23.1512 33.281C23.1824 34.2796 22.9746 35.2712 22.545 36.1733C22.1155 37.0753 21.4767 37.8617 20.6817 38.4669C19.7919 39.0697 18.7807 39.4702 17.7194 39.64C16.6581 39.8097 15.5724 39.7447 14.539 39.4495C13.5135 39.1646 12.5725 38.6349 11.7968 37.9061C11.1435 37.2939 10.1197 36.1106 10.5621 35.092C10.8238 34.5658 11.2356 34.129 11.7454 33.8367C12.2218 33.4871 12.801 33.3061 13.3917 33.3222C13.6031 33.3439 13.8077 33.4091 13.9927 33.5135C14.1777 33.618 14.3392 33.7595 14.4669 33.9293C14.5877 34.0977 14.672 34.2895 14.7145 34.4923C14.757 34.6952 14.7568 34.9046 14.7139 35.1074C14.6749 35.3025 14.5952 35.4873 14.4799 35.6495C14.3647 35.8117 14.2165 35.9478 14.0451 36.0489C13.9361 36.1109 13.8422 36.1963 13.7704 36.2991C13.6986 36.4019 13.6506 36.5195 13.6299 36.6432C13.6092 36.7668 13.6163 36.8936 13.6508 37.0141C13.6852 37.1347 13.7461 37.2461 13.829 37.3402C13.9713 37.4909 14.1616 37.5872 14.3673 37.6126C14.573 37.638 14.7811 37.5908 14.9557 37.4791C15.3177 37.2566 15.6303 36.9625 15.8745 36.6148C16.1187 36.2672 16.2892 35.8732 16.3756 35.4572C16.4678 35.021 16.4673 34.5703 16.3743 34.1343C16.2812 33.6983 16.0976 33.2866 15.8354 32.9261C15.5657 32.5643 15.2239 32.2623 14.8317 32.0391C14.4394 31.816 14.0052 31.6765 13.5563 31.6296C12.5816 31.5708 11.6165 31.8507 10.8245 32.4219C10.0297 32.8926 9.39509 33.5918 9.00328 34.4283C8.37048 35.8894 8.95184 37.5666 10.629 39.1511C11.6033 40.0549 12.7827 40.7082 14.0657 41.0547C14.8893 41.2872 15.741 41.4049 16.5968 41.4045C18.4054 41.4195 20.1736 40.8691 21.6541 39.8302C22.5465 39.1867 23.2817 38.3495 23.8046 37.3814C23.8231 37.3493 23.8497 37.3227 23.8818 37.3042C23.9138 37.2857 23.9502 37.276 23.9872 37.276C24.0242 37.276 24.0606 37.2857 24.0926 37.3042C24.1247 37.3227 24.1513 37.3493 24.1698 37.3814C24.6946 38.3497 25.4315 39.1869 26.3255 39.8302C27.8038 40.8697 29.5705 41.4202 31.3776 41.4045C32.2334 41.4054 33.0852 41.2877 33.9088 41.0547C35.1917 40.7082 36.3711 40.0549 37.3454 39.1511C39.0277 37.5666 39.6039 35.8894 38.9711 34.4283C38.5791 33.5936 37.9467 32.8949 37.1551 32.4219C36.3607 31.8514 35.3943 31.5717 34.4181 31.6296C33.9698 31.676 33.5361 31.8153 33.1446 32.0385C32.7531 32.2617 32.4124 32.564 32.1441 32.9261C31.8807 33.2861 31.6965 33.6977 31.6034 34.1339C31.5103 34.5701 31.5105 35.0211 31.6039 35.4572C31.6886 35.8739 31.8584 36.2685 32.1028 36.6164C32.3471 36.9643 32.6607 37.2581 33.0239 37.4791C33.1985 37.5908 33.4065 37.638 33.6122 37.6126C33.8179 37.5872 34.0083 37.4909 34.1506 37.3402C34.2317 37.2453 34.291 37.1339 34.3244 37.0136C34.3579 36.8933 34.3645 36.7672 34.3439 36.6441C34.3233 36.521 34.276 36.4039 34.2052 36.3011C34.1345 36.1982 34.0421 36.1122 33.9345 36.0489C33.7616 35.9496 33.6122 35.8141 33.4967 35.6515C33.3813 35.489 33.3024 35.3034 33.2657 35.1074C33.2214 34.9047 33.2206 34.695 33.2631 34.4919C33.3057 34.2889 33.3907 34.0971 33.5126 33.9293C33.6398 33.7601 33.8005 33.6189 33.9846 33.5145C34.1686 33.4101 34.3722 33.3446 34.5827 33.3222C35.1735 33.3049 35.7532 33.486 36.229 33.8367C36.7401 34.1289 37.1536 34.5656 37.4174 35.092C37.8547 36.1209 36.8309 37.2939 36.1827 37.9061C35.4058 38.6198 34.4689 39.1368 33.4509 39.4135C32.4189 39.7094 31.3346 39.7757 30.2743 39.6077C29.2139 39.4397 28.2032 39.0415 27.3132 38.4412C26.5206 37.835 25.8834 37.0492 25.454 36.1485C25.0247 35.2478 24.8155 34.2579 24.8438 33.2605V32.9518C24.8427 32.8262 24.8877 32.7045 24.9701 32.6097C25.0526 32.515 25.1668 32.4536 25.2914 32.4373C27.3078 32.1288 29.148 31.1113 30.4814 29.5676C31.8148 28.0239 32.5539 26.0552 32.566 24.0154C32.5645 22.9589 32.3656 21.912 31.9795 20.9286C31.9314 20.8135 31.9268 20.6847 31.9665 20.5664C32.0063 20.4481 32.0877 20.3483 32.1956 20.2855L32.4682 20.1261C33.3184 19.6019 34.281 19.2875 35.2766 19.2088C36.2723 19.1301 37.2723 19.2893 38.1943 19.6733C39.1589 20.1439 40.0085 20.8204 40.6832 21.6551C41.3579 22.4898 41.8412 23.4624 42.0991 24.5042C42.3666 25.5224 42.3842 26.5902 42.1505 27.6167C41.9448 28.4862 41.4354 29.9627 40.3345 30.0913C39.7463 30.1275 39.1607 29.9878 38.6522 29.69C38.1064 29.4578 37.655 29.0481 37.3711 28.5273C37.2869 28.3333 37.2434 28.1241 37.2434 27.9126C37.2434 27.701 37.2869 27.4918 37.3711 27.2978C37.4554 27.1079 37.5786 26.9379 37.7328 26.7987C37.8871 26.6596 38.0688 26.5544 38.2663 26.49C38.6202 26.3713 39.0067 26.3972 39.3415 26.5621C39.5202 26.6705 39.7303 26.7152 39.9377 26.6891C40.1451 26.6629 40.3375 26.5674 40.4837 26.418C40.5654 26.3237 40.6252 26.2123 40.6587 26.0921C40.6922 25.9718 40.6986 25.8456 40.6774 25.7226C40.6563 25.5995 40.6081 25.4827 40.5363 25.3806C40.4645 25.2784 40.371 25.1935 40.2624 25.1318C39.8834 24.9155 39.4634 24.7808 39.0292 24.7365C38.595 24.6922 38.1564 24.7393 37.7415 24.8746C37.3198 25.0104 36.9312 25.233 36.6007 25.5281C36.2702 25.8231 36.0052 26.1841 35.8226 26.5878C35.6407 27.0003 35.5468 27.4463 35.5468 27.8971C35.5468 28.348 35.6407 28.7939 35.8226 29.2064C36.262 30.08 36.9887 30.7757 37.8805 31.1769C38.686 31.6296 39.6094 31.8287 40.53 31.7479C42.1042 31.5679 43.2721 30.2045 43.802 27.982C44.1 26.6881 44.0806 25.3413 43.7454 24.0566ZM24.0001 17.1318C24.9544 17.1323 25.8981 17.332 26.7707 17.7183C27.6433 18.1045 28.4257 18.6688 29.0676 19.3749C29.1202 19.4322 29.1591 19.5006 29.1814 19.5751C29.2038 19.6495 29.2089 19.7281 29.1966 19.8048C29.1842 19.8816 29.1546 19.9545 29.11 20.0182C29.0653 20.0818 29.0069 20.1345 28.939 20.1724L24.5145 22.7447C24.3581 22.835 24.1807 22.8826 24.0001 22.8826C23.8194 22.8826 23.642 22.835 23.4856 22.7447L19.0612 20.1724C18.9936 20.1341 18.9356 20.081 18.8915 20.0171C18.8474 19.9533 18.8183 19.8802 18.8065 19.8035C18.7946 19.7268 18.8002 19.6484 18.8229 19.5742C18.8457 19.5 18.8849 19.4318 18.9377 19.3749C19.5786 18.6689 20.3601 18.1047 21.2318 17.7184C22.1036 17.3322 23.0465 17.1324 24.0001 17.1318ZM17.1319 24.0154C17.1336 23.3173 17.2412 22.6235 17.4509 21.9576C17.4742 21.8839 17.5139 21.8164 17.5669 21.7602C17.6199 21.7039 17.6849 21.6603 17.757 21.6326C17.8292 21.605 17.9067 21.5939 17.9837 21.6003C18.0608 21.6066 18.1354 21.6303 18.202 21.6695L22.6367 24.2418C22.793 24.332 22.9228 24.4618 23.0131 24.618C23.1034 24.7742 23.151 24.9514 23.1512 25.1318V30.2457C23.1531 30.3239 23.1372 30.4015 23.1045 30.4727C23.0719 30.5438 23.0235 30.6066 22.963 30.6562C22.9025 30.7058 22.8314 30.741 22.7553 30.759C22.6791 30.777 22.5999 30.7774 22.5235 30.7601C20.9898 30.4206 19.6184 29.5663 18.6375 28.3392C17.6566 27.1122 17.1253 25.5863 17.1319 24.0154ZM30.8682 24.0154C30.8631 25.5762 30.327 27.0887 29.348 28.3042C28.369 29.5198 27.0055 30.3659 25.4817 30.7035C25.4058 30.7199 25.3271 30.7188 25.2516 30.7004C25.1761 30.6819 25.1057 30.6467 25.0458 30.5971C24.9859 30.5476 24.938 30.4852 24.9057 30.4145C24.8734 30.3438 24.8575 30.2668 24.8592 30.1891V25.0804C24.8594 24.9 24.907 24.7227 24.9973 24.5665C25.0876 24.4103 25.2174 24.2806 25.3737 24.1904L29.8033 21.618C29.8702 21.5789 29.9452 21.5555 30.0225 21.5494C30.0998 21.5434 30.1775 21.5549 30.2497 21.5831C30.322 21.6113 30.3869 21.6555 30.4396 21.7123C30.4924 21.7691 30.5316 21.8371 30.5544 21.9113C30.7676 22.5921 30.8735 23.302 30.8682 24.0154Z" fill="#FF3B30"/>
<path fill-rule="evenodd" clip-rule="evenodd" d="M24 0C10.7452 0 0 10.7452 0 24C0 37.2548 10.7452 48 24 48C37.2548 48 48 37.2548 48 24C48 10.7452 37.2548 0 24 0ZM1.69775 24C1.69775 11.6828 11.6828 1.69775 24 1.69775C36.3172 1.69775 46.3022 11.6828 46.3022 24C46.3022 36.3172 36.3172 46.3022 24 46.3022C11.6828 46.3022 1.69775 36.3172 1.69775 24Z" fill="#FF3B30"/>
<path d="M7.09122 13.4718C7.34503 13.3022 7.64342 13.2117 7.94868 13.2117C8.35802 13.2117 8.7506 13.3743 9.04004 13.6637C9.32949 13.9532 9.49209 14.3457 9.49209 14.7551C9.49209 15.0603 9.40157 15.3587 9.23198 15.6126C9.06239 15.8664 8.82135 16.0642 8.53933 16.181C8.25731 16.2978 7.94697 16.3284 7.64758 16.2688C7.34819 16.2093 7.07318 16.0623 6.85733 15.8464C6.64148 15.6306 6.49448 15.3556 6.43493 15.0562C6.37538 14.7568 6.40594 14.4465 6.52276 14.1644C6.63958 13.8824 6.83741 13.6414 7.09122 13.4718Z" fill="#FF3B30"/>
<path d="M40.0517 13.2117C39.7464 13.2117 39.448 13.3022 39.1942 13.4718C38.9404 13.6414 38.7426 13.8824 38.6257 14.1644C38.5089 14.4465 38.4783 14.7568 38.5379 15.0562C38.5975 15.3556 38.7445 15.6306 38.9603 15.8464C39.1762 16.0623 39.4512 16.2093 39.7505 16.2688C40.0499 16.3284 40.3603 16.2978 40.6423 16.181C40.9243 16.0642 41.1654 15.8664 41.3349 15.6126C41.5045 15.3587 41.5951 15.0603 41.5951 14.7551C41.5951 14.3457 41.4325 13.9532 41.143 13.6637C40.8536 13.3743 40.461 13.2117 40.0517 13.2117Z" fill="#FF3B30"/>
<path d="M24.0001 40.993C23.6948 40.993 23.3964 41.0835 23.1426 41.2531C22.8888 41.4227 22.691 41.6638 22.5742 41.9458C22.4574 42.2278 22.4268 42.5381 22.4864 42.8375C22.5459 43.1369 22.6929 43.4119 22.9088 43.6278C23.1246 43.8436 23.3996 43.9906 23.699 44.0502C23.9984 44.1097 24.3087 44.0792 24.5907 43.9624C24.8728 43.8455 25.1138 43.6477 25.2834 43.3939C25.453 43.1401 25.5435 42.8417 25.5435 42.5364C25.5435 42.1271 25.3809 41.7345 25.0914 41.4451C24.802 41.1556 24.4094 40.993 24.0001 40.993Z" fill="#FF3B30"/>
</svg>

<svg xmlns="http://www.w3.org/2000/svg" viewBox="0 0 48 48" width="48" height="48" fill="none"><path fill="#FF3B30" fill-rule="evenodd" d="M43.745 24.057a8.948 8.948 0 0 0-4.851-5.958 7.4 7.4 0 0 0-3.195-.643.201.201 0 0 1-.18-.309c.57-.939.921-1.994 1.029-3.086a8.958 8.958 0 0 0-2.732-7.203 8.231 8.231 0 0 0-3.37-2.022c-2.212-.664-3.956-.324-4.902.952a4.63 4.63 0 0 0-.829 2.572 4.29 4.29 0 0 0 .68 2.768 3.261 3.261 0 0 0 2.263 1.322 3.202 3.202 0 0 0 2.464-.797 3.116 3.116 0 0 0 1.03-2.248.89.89 0 0 0-.747-.911.849.849 0 0 0-.952.844 1.398 1.398 0 0 1-.478 1.029 1.483 1.483 0 0 1-1.142.375 1.542 1.542 0 0 1-1.065-.622 2.655 2.655 0 0 1-.37-1.693 3.01 3.01 0 0 1 .514-1.651c.664-.89 2.197-.597 3.05-.34a6.54 6.54 0 0 1 2.67 1.61 7.328 7.328 0 0 1 2.229 5.798 6.281 6.281 0 0 1-3.257 4.734l-.041.03-.221.129a.515.515 0 0 1-.67-.134 8.535 8.535 0 0 0-13.375 0 .514.514 0 0 1-.664.134l-.221-.129-.041-.03a6.292 6.292 0 0 1-3.257-4.734 7.362 7.362 0 0 1 2.227-5.798 6.555 6.555 0 0 1 2.676-1.61c.854-.257 2.387-.556 3.05.34.33.487.51 1.062.515 1.651.069.59-.06 1.184-.365 1.693a1.544 1.544 0 0 1-1.065.622 1.47 1.47 0 0 1-1.147-.375 1.4 1.4 0 0 1-.479-1.03.848.848 0 0 0-.952-.843.89.89 0 0 0-.746.91 3.121 3.121 0 0 0 2.177 2.909c.424.137.873.184 1.317.137a3.252 3.252 0 0 0 2.279-1.296 4.27 4.27 0 0 0 .684-2.763 4.697 4.697 0 0 0-.828-2.572c-.952-1.276-2.691-1.616-4.903-.952a8.2 8.2 0 0 0-3.37 2.022 8.94 8.94 0 0 0-2.732 7.202 7.331 7.331 0 0 0 1.03 3.087.202.202 0 0 1-.075.285.2.2 0 0 1-.106.024 7.393 7.393 0 0 0-3.19.643 8.967 8.967 0 0 0-4.856 5.957 8.278 8.278 0 0 0-.067 3.931c.514 2.248 1.698 3.601 3.277 3.766.139.01.278.01.417 0a4.928 4.928 0 0 0 2.232-.597 4.244 4.244 0 0 0 2.058-1.97 3.245 3.245 0 0 0 0-2.619 3.185 3.185 0 0 0-1.924-1.739 3.138 3.138 0 0 0-2.464.221.89.89 0 0 0-.417 1.107.849.849 0 0 0 1.204.4 1.394 1.394 0 0 1 1.147-.112 1.482 1.482 0 0 1 1.023 1.422c0 .212-.043.42-.127.615-.284.52-.736.93-1.281 1.163a2.963 2.963 0 0 1-1.678.4c-1.106-.128-1.615-1.604-1.82-2.474a6.539 6.539 0 0 1 .06-3.117 7.316 7.316 0 0 1 3.91-4.831 6.286 6.286 0 0 1 5.722.453l.267.154a.514.514 0 0 1 .216.643 8.555 8.555 0 0 0 7.141 11.627v.597a.78.78 0 0 0 0 .154 6.271 6.271 0 0 1-2.47 5.186 7.353 7.353 0 0 1-6.142.983 6.575 6.575 0 0 1-2.742-1.544c-.654-.612-1.677-1.795-1.235-2.814a2.973 2.973 0 0 1 1.183-1.255 2.66 2.66 0 0 1 1.647-.515 1.544 1.544 0 0 1 1.075.607 1.49 1.49 0 0 1 .013 1.72 1.415 1.415 0 0 1-.435.4.844.844 0 0 0-.216 1.291.89.89 0 0 0 1.127.14 3.118 3.118 0 0 0 1.42-2.023 3.185 3.185 0 0 0-.54-2.53 3.268 3.268 0 0 0-2.28-1.297 4.234 4.234 0 0 0-2.731.792 4.599 4.599 0 0 0-1.822 2.006c-.633 1.461-.051 3.139 1.626 4.723a8.195 8.195 0 0 0 3.437 1.904 9.3 9.3 0 0 0 2.53.35 8.68 8.68 0 0 0 5.058-1.575 7.29 7.29 0 0 0 2.15-2.449.21.21 0 0 1 .366 0 7.305 7.305 0 0 0 2.155 2.45 8.652 8.652 0 0 0 5.053 1.573c.855.001 1.707-.116 2.53-.35a8.195 8.195 0 0 0 3.437-1.903c1.683-1.584 2.259-3.262 1.626-4.723a4.63 4.63 0 0 0-1.816-2.006 4.26 4.26 0 0 0-2.737-.792 3.246 3.246 0 0 0-2.274 1.296 3.164 3.164 0 0 0-.54 2.531 3.086 3.086 0 0 0 1.42 2.022.89.89 0 0 0 1.127-.139.854.854 0 0 0-.217-1.291 1.38 1.38 0 0 1-.668-.942 1.471 1.471 0 0 1 .247-1.178 1.542 1.542 0 0 1 1.07-.607c.59-.017 1.17.164 1.646.515.511.292.925.729 1.188 1.255.438 1.029-.586 2.202-1.234 2.814a6.595 6.595 0 0 1-2.732 1.508 7.351 7.351 0 0 1-6.138-.973 6.299 6.299 0 0 1-2.47-5.18v-.31a.515.515 0 0 1 .448-.514 8.57 8.57 0 0 0 7.275-8.422 8.48 8.48 0 0 0-.587-3.086.515.515 0 0 1 .217-.643l.272-.16a6.296 6.296 0 0 1 5.726-.453 7.337 7.337 0 0 1 3.905 4.831 6.538 6.538 0 0 1 .052 3.113c-.206.87-.716 2.346-1.817 2.474a2.968 2.968 0 0 1-1.682-.401 2.633 2.633 0 0 1-1.28-1.163 1.544 1.544 0 0 1 0-1.23 1.483 1.483 0 0 1 .894-.807c.354-.119.74-.093 1.076.072a.926.926 0 0 0 1.142-.144.844.844 0 0 0-.222-1.286 3.128 3.128 0 0 0-2.52-.257 3.173 3.173 0 0 0-1.92 1.713 3.245 3.245 0 0 0 0 2.618 4.26 4.26 0 0 0 2.058 1.97 4.589 4.589 0 0 0 2.65.572c1.574-.18 2.742-1.544 3.272-3.766a8.231 8.231 0 0 0-.057-3.925ZM24 17.132a6.853 6.853 0 0 1 5.068 2.243.514.514 0 0 1-.129.797l-4.424 2.573a1.029 1.029 0 0 1-1.03 0l-4.424-2.573a.514.514 0 0 1-.123-.797A6.843 6.843 0 0 1 24 17.132Zm-6.868 6.883c.002-.698.11-1.392.319-2.057a.513.513 0 0 1 .751-.288l4.435 2.572a1.029 1.029 0 0 1 .514.89v5.114a.514.514 0 0 1-.628.514 6.878 6.878 0 0 1-5.391-6.745Zm13.736 0a6.873 6.873 0 0 1-5.386 6.688.514.514 0 0 1-.623-.514V25.08a1.03 1.03 0 0 1 .515-.89l4.43-2.572a.515.515 0 0 1 .75.293c.214.681.32 1.391.314 2.104Z" clip-rule="evenodd"/><path fill="#FF3B30" fill-rule="evenodd" d="M24 0C10.745 0 0 10.745 0 24s10.745 24 24 24 24-10.745 24-24S37.255 0 24 0ZM1.698 24C1.698 11.683 11.683 1.698 24 1.698S46.302 11.683 46.302 24 36.317 46.302 24 46.302 1.698 36.317 1.698 24Z" clip-rule="evenodd"/><path fill="#FF3B30" d="M7.091 13.472a1.543 1.543 0 1 1 1.715 2.566 1.543 1.543 0 0 1-1.715-2.566ZM40.052 13.212a1.543 1.543 0 1 0 0 3.086 1.543 1.543 0 0 0 0-3.086ZM24 40.993a1.543 1.543 0 1 0 0 3.087 1.543 1.543 0 0 0 0-3.087Z"/></svg>
